X:424
T:Long John Silver
C:Chris Dewhurst, 1982
L:1/8
M:6/8
S:Colin Hume's website,  colinhume.com  - chords can also be printed below the stave.
Q:3/8=110
H:For the dance "Pick 'n' Nick's Contra" by Kathryn and David Wright
K:G
P:A
|: "G"G2B "D"A2B | "G"GAB "C"AGE | "G/B"D2G "C"E2G | "G/D"DGB "D"A3 |\
"G"G2B "D/A"A2B | "G/B"GAB "C"AGE | "G/D"DdB "D"AGA | "G"G3- G3 :|
P:B
|: "G"B2d "C"c2e | "G"ded BAG | "G"B2d "C"c2e | "G/D"dBG "D"A3 |\
"G"B2d "C"c2e | "G/B"def "Em"gdB | "Am"cAF "D"DEF | "G"G3- G3 :|

